X: 0
T: The Sally Gardens
C: Trad
R: reel
M: 4/4
L: 1/8
K: Gmaj
DE|:"G"G2GA BAGB|dBeB "D"dBAB|"G"d2Bd efge|"C"dBAB "D"GEDE|
"G"G2GA BAGB|d2eB "D"dBAB|"G"d2Bd "C"efge|"D"dBAB "G"G4:|
|:"G"dggf g2de|g2bg ageg|"Am"eaag a2eg|"C"a2bg "D"ageg|
"G"dggf g2de|"Em"g2bg "C"ageg|"G"d2Bd "C"efge|"D"dBAB "G"G4:|